src/images/logo.svg

<svg width="34" height="34" viewBox="0 0 34 34" fill="none" xmlns="http://www.w3.org/2000/svg">
<path fill-rule="evenodd" clip-rule="evenodd" d="M31.7175 24.9322L32.2431 23.7429C33.1659 21.6556 33.6803 19.3426 33.6803 16.8988C33.6803 7.56583 26.1408 0 16.8402 0C7.53961 0 0 7.56583 0 16.8988C0 26.2317 7.53961 33.7976 16.8402 33.7976C19.924 33.7976 22.8033 32.9695 25.2819 31.525L26.586 30.7652L33.4849 32.3405L31.7175 24.9322ZM9.92899 25.1142L9.92309 25.1079C8.21181 23.2761 7.24628 21.1303 7.02326 18.6705C7.00712 18.4866 7.00218 18.2979 6.99725 18.1103C6.99623 18.0722 6.99523 18.0341 6.99415 17.9961C9.54396 15.4296 12.9706 13.8525 16.75 13.8525C20.5747 13.8525 24.0403 15.4712 26.5998 18.0964C26.493 20.853 25.5384 23.2119 23.7102 25.1661C21.7978 27.2102 19.536 28.2411 16.9215 28.272C14.2159 28.2478 11.8849 27.202 9.93494 25.1206L9.92899 25.1142Z" fill="url(#paint0_linear)"/>
<defs>
<linearGradient id="paint0_linear" x1="38.6471" y1="37.6827" x2="0.0439781" y2="2.87994" gradientUnits="userSpaceOnUse">
<stop stop-color="#0C3B83"/>
<stop offset="0.0001" stop-color="#09459E"/>
<stop offset="1" stop-color="#0066FF"/>
</linearGradient>
</defs>
</svg>

<?xml version="1.0" encoding="utf-8"?>
<!-- Generator: Adobe Illustrator 25.2.3, SVG Export Plug-In . SVG Version: 6.00 Build 0)  -->
<svg version="1.1" id="Layer_1" xmlns="http://www.w3.org/2000/svg" xmlns:xlink="http://www.w3.org/1999/xlink" x="0px" y="0px"
	 viewBox="0 0 34 34" style="enable-background:new 0 0 34 34;" xml:space="preserve">
<style type="text/css">
	.st0{fill-rule:evenodd;clip-rule:evenodd;fill:url(#SVGID_1_);}
</style>
<linearGradient id="SVGID_1_" gradientUnits="userSpaceOnUse" x1="39.206" y1="-1.0628" x2="0.6029" y2="33.74" gradientTransform="matrix(1 0 0 -1 0 36)">
	<stop  offset="0" style="stop-color:#0C3B83"/>
	<stop  offset="1.000000e-04" style="stop-color:#09459E"/>
	<stop  offset="1" style="stop-color:#0066FF"/>
</linearGradient>
<path class="st0" d="M31.7,24.9l0.5-1.2c0.9-2.1,1.4-4.4,1.4-6.8C33.7,7.6,26.1,0,16.8,0C7.5,0,0,7.6,0,16.9
	c0,9.3,7.5,16.9,16.8,16.9c3.1,0,6-0.8,8.4-2.3l1.3-0.8l6.9,1.6L31.7,24.9z M9.9,25.1L9.9,25.1c-1.7-1.8-2.7-4-2.9-6.4
	c0-0.2,0-0.4,0-0.6c0,0,0-0.1,0-0.1c2.5-2.6,6-4.1,9.8-4.1c3.8,0,7.3,1.6,9.8,4.2c-0.1,2.8-1.1,5.1-2.9,7.1c-1.9,2-4.2,3.1-6.8,3.1
	C14.2,28.2,11.9,27.2,9.9,25.1L9.9,25.1z"/>
</svg>
